X:01
T: The Argosy Reel
C: Conn McDonnell
Z: Written to commemorate the Argosy Bar in Glascow, the Celtic Football Club fans who hang out there, and the Argosy's Guinness
M: 4/4
L: 1/8
Z: Contributed 20020828190105 by Zina Lee zlee@ntw.net
K: Em
|:Beed edBA | FADA FADA | Eeed edBA | DEFA FEE/2E/2E|
|Beed edBA | FAde fdef | ~g3f edBA | FADE FEE/2E/2E :|
|:e/2e/2eGe Ae^ce | defg adfd | e/2e/2eGe BeAe |Fdd^c defd |
| e/2e/2eGe Be^ce| defg adfa |gBeg fedB |ABde fafd :||
